data/icons/org.gabmus.gfeeds-symbolic.svg

<svg version="1.1" viewBox="0 0 16 16" xmlns="http://www.w3.org/2000/svg" xmlns:xlink="http://www.w3.org/1999/xlink">
    <g transform="translate(0 -229.27)">
        <g transform="matrix(3.7795 0 0 3.7795 -.5 -636.25)">
            <path d="m0.66146 229.8c-0.14658 0-0.26458 0.118-0.26458 0.26458v2.3812c0 0.14658 0.118 0.26459 0.26458 0.26459h3.175c0.14658 0 0.26458-0.11801 0.26458-0.26459v-2.3812c0-0.14658-0.118-0.26458-0.26458-0.26458zm0.13229 0.26458h2.9104c0.07329 0 0.13229 0.059 0.13229 0.1323v2.1167c0 0.0733-0.059002 0.13229-0.13229 0.13229h-2.9104c-0.07329 0-0.13229-0.059-0.13229-0.13229v-2.1167c0-0.0733 0.059002-0.1323 0.13229-0.1323z" enable-background="new" style="paint-order:stroke fill markers"/>
            <g transform="matrix(.11023 0 0 .11024 2.0285 230.37)" enable-background="new">
                <path d="m6 12a2 2 0 0 1-2 2 2 2 0 0 1-2-2 2 2 0 0 1 2-2 2 2 0 0 1 2 2z" color="#000000" overflow="visible"/>
                <path d="m2 6h1.014v1.014h-1.014zm7.014 7.014h0.986v0.986h-0.986zm4 0h0.986v0.986h-0.986zm-11.014-11.014h1.014v1.014h-1.014z"/>
                <path d="m3.014 8.014c2.774 0 5 2.227 5 5h2c0-3.854-3.145-7-7-7z" color="#000000" font-family="sans-serif" font-weight="400" overflow="visible" style="font-feature-settings:normal;font-variant-alternates:normal;font-variant-caps:normal;font-variant-ligatures:normal;font-variant-numeric:normal;font-variant-position:normal;isolation:auto;mix-blend-mode:normal;shape-padding:0;text-decoration-color:#000000;text-decoration-line:none;text-decoration-style:solid;text-indent:0;text-orientation:mixed;text-transform:none" white-space="normal"/>
                <path d="m 3.014,4.028 a 8.972,8.972 0 0 1 8.987,8.986 h 2 C 14,6.96 9.07,2.028 3.014,2.028 Z" color="#000000" font-family="sans-serif" font-weight="400" overflow="visible" style="font-feature-settings:normal;font-variant-alternates:normal;font-variant-caps:normal;font-variant-ligatures:normal;font-variant-numeric:normal;font-variant-position:normal;isolation:auto;mix-blend-mode:normal;shape-padding:0;text-decoration-color:#000000;text-decoration-line:none;text-decoration-style:solid;text-indent:0;text-orientation:mixed;text-transform:none" white-space="normal"/>
                <path d="m4 7a1 1 0 0 1-1 1 1 1 0 0 1-1-1 1 1 0 0 1 1-1 1 1 0 0 1 1 1zm0-4a1 1 0 0 1-1 1 1 1 0 0 1-1-1 1 1 0 0 1 1-1 1 1 0 0 1 1 1zm6 10a1 1 0 0 1-1 1 1 1 0 0 1-1-1 1 1 0 0 1 1-1 1 1 0 0 1 1 1zm4 0a1 1 0 0 1-1 1 1 1 0 0 1-1-1 1 1 0 0 1 1-1 1 1 0 0 1 1 1z" color="#000000" overflow="visible"/>
            </g>
            <rect x=".92604" y="230.32" width="1.0583" height=".26458" ry="0" enable-background="new" stroke-width=".049416"/>
            <rect x=".92604" y="231.38" width=".79375" height=".26458" ry="0" enable-background="new" stroke-width=".040506"/>
            <rect x=".92604" y="230.85" width="1.0583" height=".26458" ry="0" enable-background="new" stroke-width=".046772"/>
            <rect x=".92604" y="231.91" width="1.0583" height=".26458" ry="0" enable-background="new" stroke-width=".046772"/>
        </g>
    </g>
</svg>

<?xml version="1.0" encoding="UTF-8" standalone="no"?>
<svg
   xmlns:dc="http://purl.org/dc/elements/1.1/"
   xmlns:cc="http://creativecommons.org/ns#"
   xmlns:rdf="http://www.w3.org/1999/02/22-rdf-syntax-ns#"
   xmlns:svg="http://www.w3.org/2000/svg"
   xmlns="http://www.w3.org/2000/svg"
   xmlns:xlink="http://www.w3.org/1999/xlink"
   xmlns:sodipodi="http://sodipodi.sourceforge.net/DTD/sodipodi-0.dtd"
   xmlns:inkscape="http://www.inkscape.org/namespaces/inkscape"
   sodipodi:docname="org.gabmus.gfeeds-symbolic.svg"
   inkscape:version="1.0alpha2 (5e8e0a6, 2019-09-01)"
   id="svg2170"
   version="1.1"
   viewBox="0 0 4.2333333 4.2333335"
   height="16"
   width="16">
  <defs
     id="defs2164">
    <linearGradient
       xlink:href="#linearGradient1038"
       id="linearGradient1159"
       x1="27.99999"
       y1="-276"
       x2="115.99999"
       y2="-276"
       gradientUnits="userSpaceOnUse"
       gradientTransform="matrix(0.67798714,0,0,0.52916666,6.5899031,-124.84283)" />
    <linearGradient
       id="linearGradient1038">
      <stop
         id="stop1026"
         offset="0"
         style="stop-color:#c0bfbc;stop-opacity:1" />
      <stop
         style="stop-color:#ffffff;stop-opacity:1"
         offset="0.04545454"
         id="stop1028" />
      <stop
         style="stop-color:#deddda;stop-opacity:1"
         offset="0.09090909"
         id="stop1030" />
      <stop
         style="stop-color:#deddda;stop-opacity:1"
         offset="0.90909088"
         id="stop1032" />
      <stop
         id="stop1034"
         offset="0.95454544"
         style="stop-color:#ffffff;stop-opacity:1" />
      <stop
         id="stop1036"
         offset="1"
         style="stop-color:#c0bfbc;stop-opacity:1" />
    </linearGradient>
    <linearGradient
       xlink:href="#linearGradient1351-3"
       id="linearGradient1130"
       gradientUnits="userSpaceOnUse"
       gradientTransform="matrix(0.25,0,0,0.25,180,83)"
       x1="344"
       y1="76"
       x2="340"
       y2="72" />
    <linearGradient
       id="linearGradient1351-3">
      <stop
         style="stop-color:#d5d3cf;stop-opacity:1"
         offset="0"
         id="stop1347" />
      <stop
         style="stop-color:#ffffff;stop-opacity:1"
         offset="1"
         id="stop1349-6" />
    </linearGradient>
    <clipPath
       clipPathUnits="userSpaceOnUse"
       id="clipPath1609-7">
      <path
         inkscape:connector-curvature="0"
         id="path1611-5"
         d="m 252,116 28,-28 v -8 h -36 v 36 z"
         style="fill:#e74747;stroke:none;stroke-width:0.25px;stroke-linecap:butt;stroke-linejoin:miter;stroke-opacity:1" />
    </clipPath>
  </defs>
  <sodipodi:namedview
     inkscape:document-rotation="0"
     inkscape:snap-bbox-midpoints="true"
     inkscape:snap-bbox="true"
     inkscape:window-maximized="1"
     inkscape:window-y="0"
     inkscape:window-x="0"
     inkscape:window-height="1376"
     inkscape:window-width="2560"
     units="px"
     showgrid="true"
     inkscape:current-layer="layer1"
     inkscape:document-units="px"
     inkscape:cy="60.996647"
     inkscape:cx="-95.339529"
     inkscape:zoom="2.8284271"
     inkscape:pageshadow="2"
     inkscape:pageopacity="0.0"
     borderopacity="1.0"
     bordercolor="#666666"
     pagecolor="#ffffff"
     id="base"
     inkscape:bbox-paths="false"
     inkscape:snap-to-guides="false"
     inkscape:object-nodes="true"
     inkscape:bbox-nodes="true"
     inkscape:snap-smooth-nodes="true">
    <inkscape:grid
       type="xygrid"
       id="grid859" />
  </sodipodi:namedview>
  <metadata
     id="metadata2167">
    <rdf:RDF>
      <cc:Work
         rdf:about="">
        <dc:format>image/svg+xml</dc:format>
        <dc:type
           rdf:resource="http://purl.org/dc/dcmitype/StillImage" />
        <dc:title />
      </cc:Work>
    </rdf:RDF>
  </metadata>
  <g
     transform="translate(0,-229.26665)"
     id="layer1"
     inkscape:groupmode="layer"
     inkscape:label="Layer 1">
    <g
       id="g898"
       transform="translate(-0.13229166,0.26457673)">
      <path
         id="rect1115"
         style="display:inline;opacity:1;fill:#000000;fill-opacity:1;stroke:none;stroke-width:0.518001;stroke-opacity:1;paint-order:stroke fill markers;enable-background:new"
         d="m 0.66145834,229.79582 c -0.14657917,0 -0.26458334,0.118 -0.26458334,0.26458 v 2.38125 c 0,0.14658 0.11800417,0.26459 0.26458334,0.26459 H 3.8364584 c 0.1465792,0 0.2645833,-0.11801 0.2645833,-0.26459 v -2.38125 c 0,-0.14658 -0.1180041,-0.26458 -0.2645833,-0.26458 z m 0.13229167,0.26458 H 3.7041667 c 0.07329,0 0.1322917,0.059 0.1322917,0.1323 v 2.11666 c 0,0.0733 -0.059002,0.13229 -0.1322917,0.13229 H 0.79375001 c -0.0732896,0 -0.13229167,-0.059 -0.13229167,-0.13229 v -2.11666 c 0,-0.0733 0.0590021,-0.1323 0.13229167,-0.1323 z"
         inkscape:connector-curvature="0"
         sodipodi:nodetypes="ssssssssssssssssss" />
      <g
         style="display:inline;opacity:1;fill:#000000;enable-background:new;stop-opacity:1"
         transform="matrix(0.11023383,0,0,0.11024297,2.0284917,230.36908)"
         fill="#474747"
         id="g930-3">
        <path
           inkscape:connector-curvature="0"
           d="M 6,12 A 2,2 0 0 1 4,14 2,2 0 0 1 2,12 2,2 0 0 1 4,10 2,2 0 0 1 6,12 Z"
           style="fill:#000000;marker:none"
           color="#000"
           overflow="visible"
           id="path920-6" />
        <path
           style="fill:#000000"
           inkscape:connector-curvature="0"
           d="M 2,6 H 3.014 V 7.014 H 2 Z m 7.014,7.014 H 10 V 14 H 9.014 Z m 4,0 H 14 V 14 H 13.014 Z M 2,2 H 3.014 V 3.014 H 2 Z"
           id="path922-7" />
        <path
           inkscape:connector-curvature="0"
           d="m 3.014,8.014 c 2.774,0 5,2.227 5,5 h 2 c 0,-3.854 -3.145,-7 -7,-7 z"
           style="line-height:normal;font-variant-ligatures:normal;font-variant-position:normal;font-variant-caps:normal;font-variant-numeric:normal;font-variant-alternates:normal;font-feature-settings:normal;text-indent:0;text-align:start;text-decoration:none;text-decoration-line:none;text-decoration-style:solid;text-decoration-color:#000000;text-transform:none;text-orientation:mixed;shape-padding:0;isolation:auto;mix-blend-mode:normal;fill:#000000;marker:none"
           color="#000"
           font-weight="400"
           font-family="sans-serif"
           white-space="normal"
           overflow="visible"
           id="path924-5" />
        <path
           inkscape:connector-curvature="0"
           d="m 3.014,4.028 a 8.972,8.972 0 0 1 8.987,8.986 h 2 C 14,6.96 9.07,2.028 3.014,2.028 Z"
           style="line-height:normal;font-variant-ligatures:normal;font-variant-position:normal;font-variant-caps:normal;font-variant-numeric:normal;font-variant-alternates:normal;font-feature-settings:normal;text-indent:0;text-align:start;text-decoration:none;text-decoration-line:none;text-decoration-style:solid;text-decoration-color:#000000;text-transform:none;text-orientation:mixed;shape-padding:0;isolation:auto;mix-blend-mode:normal;fill:#000000;marker:none"
           color="#000"
           font-weight="400"
           font-family="sans-serif"
           white-space="normal"
           overflow="visible"
           id="path926-3" />
        <path
           inkscape:connector-curvature="0"
           d="M 4,7 A 1,1 0 0 1 3,8 1,1 0 0 1 2,7 1,1 0 0 1 3,6 1,1 0 0 1 4,7 Z M 4,3 A 1,1 0 0 1 3,4 1,1 0 0 1 2,3 1,1 0 0 1 3,2 1,1 0 0 1 4,3 Z m 6,10 a 1,1 0 0 1 -1,1 1,1 0 0 1 -1,-1 1,1 0 0 1 1,-1 1,1 0 0 1 1,1 z m 4,0 a 1,1 0 0 1 -1,1 1,1 0 0 1 -1,-1 1,1 0 0 1 1,-1 1,1 0 0 1 1,1 z"
           style="fill:#000000;marker:none"
           color="#000"
           overflow="visible"
           id="path928-5" />
      </g>
      <rect
         style="display:inline;opacity:1;fill:#000000;stroke-width:0.0494165;enable-background:new;stop-opacity:1"
         width="1.0583334"
         height="0.26458335"
         x="0.92604172"
         y="230.32498"
         ry="0"
         fill="#0cc"
         id="rect932-6" />
      <rect
         style="display:inline;opacity:1;fill:#000000;stroke-width:0.0405059;enable-background:new;stop-opacity:1"
         width="0.79374999"
         height="0.26458335"
         x="0.92604172"
         y="231.38332"
         ry="0"
         fill="#deddda"
         id="rect934-2" />
      <rect
         id="rect1127"
         fill="#deddda"
         ry="0"
         y="230.85414"
         x="0.92604172"
         height="0.26458335"
         width="1.0583334"
         style="display:inline;opacity:1;fill:#000000;stroke-width:0.0467722;enable-background:new;stop-opacity:1" />
      <rect
         style="display:inline;opacity:1;fill:#000000;stroke-width:0.0467722;enable-background:new;stop-opacity:1"
         width="1.0583334"
         height="0.26458335"
         x="0.92604172"
         y="231.91248"
         ry="0"
         fill="#deddda"
         id="rect1137" />
    </g>
  </g>
</svg>
